X: 4
T: The Crib Of Perches
R: reel
M: 4/4
L: 1/8
K: Dmix
A3B AGFD|(3EFG AB c2Bc| G2EC G,CEG|cAGc AGFG|
A3B AGFD|(3EFG AB c2Bc|df~f2 efdB|AFGE FDD2:||:
df~f2 af~f2|bfaf gfed|^cdef ge^ce |ge^cA ^GAB^c|
df~f2 af~f2|defd ed^cA|(3Bcd e^c d2^cB| AFGE FDD2:|


Tune 1366	Setting 1366

